svg/file/download_3_fill.svg

<?xml version="1.0" encoding="UTF-8"?>
<svg width="24px" height="24px" viewBox="0 0 24 24" version="1.1" xmlns="http://www.w3.org/2000/svg" xmlns:xlink="http://www.w3.org/1999/xlink">
    <title>download_3_fill</title>
    <g id="页面-1" stroke="none" stroke-width="1" fill="none" fill-rule="evenodd">
        <g id="File" transform="translate(-912.000000, -144.000000)" fill-rule="nonzero">
            <g id="download_3_fill" transform="translate(912.000000, 144.000000)">
                 <path d="M24,0 L24,24 L0,24 L0,0 L24,0 Z M12.5934901,23.257841 L12.5819402,23.2595131 L12.5108777,23.2950439 L12.4918791,23.2987469 L12.4918791,23.2987469 L12.4767152,23.2950439 L12.4056548,23.2595131 C12.3958229,23.2563662 12.3870493,23.2590235 12.3821421,23.2649074 L12.3780323,23.275831 L12.360941,23.7031097 L12.3658947,23.7234994 L12.3769048,23.7357139 L12.4804777,23.8096931 L12.4953491,23.8136134 L12.4953491,23.8136134 L12.5071152,23.8096931 L12.6106902,23.7357139 L12.6232938,23.7196733 L12.6232938,23.7196733 L12.6266527,23.7031097 L12.609561,23.275831 C12.6075724,23.2657013 12.6010112,23.2592993 12.5934901,23.257841 L12.5934901,23.257841 Z M12.8583906,23.1452862 L12.8445485,23.1473072 L12.6598443,23.2396597 L12.6498822,23.2499052 L12.6498822,23.2499052 L12.6471943,23.2611114 L12.6650943,23.6906389 L12.6699349,23.7034178 L12.6699349,23.7034178 L12.678386,23.7104931 L12.8793402,23.8032389 C12.8914285,23.8068999 12.9022333,23.8029875 12.9078286,23.7952264 L12.9118235,23.7811639 L12.8776777,23.1665331 C12.8752882,23.1545897 12.8674102,23.1470016 12.8583906,23.1452862 L12.8583906,23.1452862 Z M12.1430473,23.1473072 C12.1332178,23.1423925 12.1221763,23.1452606 12.1156365,23.1525954 L12.1099173,23.1665331 L12.0757714,23.7811639 C12.0751323,23.7926639 12.0828099,23.8018602 12.0926481,23.8045676 L12.108256,23.8032389 L12.3092106,23.7104931 L12.3186497,23.7024347 L12.3186497,23.7024347 L12.3225043,23.6906389 L12.340401,23.2611114 L12.337245,23.2485176 L12.337245,23.2485176 L12.3277531,23.2396597 L12.1430473,23.1473072 Z" id="MingCute" fill-rule="nonzero"></path>
                <path d="M12.0000009,11 C12.5523,11 13.0000009,11.4477 13.0000009,12 L13.0000009,18.5838 L14.2934,17.2923 C14.6843,16.9021 15.3174,16.9026 15.7077,17.2934 C16.0979,17.6843 16.0974,18.3174 15.7066,18.7077 L12.8832,21.5266 C12.6301,21.7793 12.3839,22 12.0000009,22 C11.6640876,22 11.4336016,21.8310266 11.2116715,21.6194939 L8.29345,18.7077 C7.90262,18.3174 7.90212,17.6843 8.29234,17.2934 C8.68256,16.9026 9.31572,16.9021 9.70655,17.2923 L11.0000009,18.5838 L11.0000009,12 C11.0000009,11.4477 11.4477,11 12.0000009,11 Z M11.5,2 C14.2845,2 16.6601,3.7509 17.5858,6.2118 C20.13,6.90722 22,9.23523 22,12 C22,14.6194 20.3215,16.8468 17.9814,17.6651 C17.9086,17.0132 17.6225,16.3806 17.123,15.8803 C16.5903636,15.3468455 15.9068182,15.0557876 15.2094786,15.0072767 L15,15 L15,12 C15,10.3431 13.6569,9 12,9 C10.402275,9 9.09633597,10.2488774 9.00509252,11.8237227 L9,12 L9,15 C8.23145,15 7.46294,15.2935 6.87701,15.8803 C6.31762,16.4406 6.02588,17.1669 6.00165,17.9003 C3.71859,17.4377 2,15.4195 2,13 C2,10.9495 3.23434,9.18724 5.00053,8.41581 C5.04561,4.86476 7.93825,2 11.5,2 Z" id="形状" fill="#09244B"></path>
            </g>
        </g>
    </g>
</svg>

<svg xmlns="http://www.w3.org/2000/svg" width="24" height="24"><g fill="none" fill-rule="nonzero"><path d="M24 0v24H0V0h24ZM12.593 23.258l-.011.002-.071.035-.02.004-.014-.004-.071-.035c-.01-.004-.019-.001-.024.005l-.004.01-.017.428.005.02.01.013.104.074.015.004.012-.004.104-.074.012-.016.004-.017-.017-.427c-.002-.01-.009-.017-.017-.018Zm.265-.113-.013.002-.185.093-.01.01-.003.011.018.43.005.012.008.007.201.093c.012.004.023 0 .029-.008l.004-.014-.034-.614c-.003-.012-.01-.02-.02-.022Zm-.715.002a.023.023 0 0 0-.027.006l-.006.014-.034.614c0 .012.007.02.017.024l.015-.002.201-.093.01-.008.004-.011.017-.43-.003-.012-.01-.01-.184-.092Z"/><path fill="#09244B" d="M12 11a1 1 0 0 1 1 1v6.584l1.293-1.292a1 1 0 0 1 1.414 1.416l-2.824 2.819c-.253.252-.5.473-.883.473-.336 0-.566-.169-.788-.38l-2.919-2.912a1 1 0 0 1 1.414-1.416L11 18.584V12a1 1 0 0 1 1-1Zm-.5-9c2.784 0 5.16 1.75 6.086 4.212a6.003 6.003 0 0 1 .395 11.453 2.987 2.987 0 0 0-.858-1.785 2.988 2.988 0 0 0-1.914-.873L15 15v-3a3 3 0 0 0-5.995-.176L9 12v3a2.99 2.99 0 0 0-2.123.88 2.99 2.99 0 0 0-.875 2.02A5.002 5.002 0 0 1 5 8.416 6.5 6.5 0 0 1 11.5 2Z"/></g></svg>
